material/.icons/material/keyboard-f9.svg

<?xml version="1.0" encoding="UTF-8"?><!DOCTYPE svg PUBLIC "-//W3C//DTD SVG 1.1//EN" "http://www.w3.org/Graphics/SVG/1.1/DTD/svg11.dtd"><svg xmlns="http://www.w3.org/2000/svg" xmlns:xlink="http://www.w3.org/1999/xlink" version="1.1" id="mdi-keyboard-f9" width="24" height="24" viewBox="0 0 24 24"><path d="M5 7H11V9H7V11H10V13H7V17H5V7M17 17H13V15H17V13H15C13.9 13 13 12.11 13 11V9C13 7.9 13.9 7 15 7H17C18.11 7 19 7.9 19 9V15C19 16.11 18.11 17 17 17M17 11V9H15V11H17Z" /></svg>

<svg xmlns="http://www.w3.org/2000/svg" viewBox="0 0 24 24"><path d="M5 7h6v2H7v2h3v2H7v4H5V7m12 10h-4v-2h4v-2h-2a2 2 0 01-2-2V9c0-1.1.9-2 2-2h2a2 2 0 012 2v6c0 1.11-.89 2-2 2m0-6V9h-2v2h2z"/></svg>
